public/img/old-svg/visa.svg

<svg width="75" height="43" viewBox="0 0 75 43" fill="none" xmlns="http://www.w3.org/2000/svg">
<path fill-rule="evenodd" clip-rule="evenodd" d="M75 40.712C75 41.9788 73.8868 43 72.506 43H2.49458C1.1132 43 0 41.9788 0 40.712V2.28814C0 1.02127 1.1132 0 2.49458 0H72.506C73.8868 0 75 1.02127 75 2.28814V40.712Z" fill="#F8F8F8"/>
<path fill-rule="evenodd" clip-rule="evenodd" d="M34.5175 27.9647H30.8535L33.1506 15.0488H36.8146L34.5175 27.9647Z" fill="#434C9E"/>
<path fill-rule="evenodd" clip-rule="evenodd" d="M27.7648 15.0488L24.2838 23.9317L23.8609 22.0181L22.6345 16.2132C22.6345 16.2132 22.4801 15.0488 20.8872 15.0488H15.1234L15.0527 15.2686C15.0527 15.2686 16.8143 15.6053 18.8862 16.7433L22.0712 27.9647H25.8903L31.7103 15.0488H27.7648Z" fill="#434C9E"/>
<path fill-rule="evenodd" clip-rule="evenodd" d="M56.584 27.9647H59.9518L57.0206 15.0488H54.0754C52.7083 15.0488 52.3848 16.0189 52.3848 16.0189L46.916 27.9647H50.7351L51.4971 26.0386H56.1614L56.584 27.9647ZM52.553 23.4016L54.4839 18.5657L55.5689 23.4016H52.553Z" fill="#434C9E"/>
<path fill-rule="evenodd" clip-rule="evenodd" d="M47.2163 18.1523L47.7374 15.3855C47.7374 15.3855 46.1167 14.8164 44.4402 14.8164C42.6221 14.8164 38.2961 15.5532 38.2961 19.0959C38.2961 22.4318 43.3687 22.4705 43.3687 24.2286C43.3687 25.9745 38.8174 25.6632 37.3233 24.5521L36.7734 27.4611C36.7734 27.4611 38.4087 28.1856 40.9171 28.1856C43.4107 28.1856 47.1876 26.9957 47.1876 23.7631C47.1876 20.4149 42.0723 20.0917 42.0723 18.6302C42.0723 17.1824 45.6383 17.3634 47.2163 18.1523Z" fill="#434C9E"/>
<path fill-rule="evenodd" clip-rule="evenodd" d="M23.8609 22.0181L22.6345 16.2132C22.6345 16.2132 22.4801 15.0488 20.8872 15.0488H15.1234L15.0527 15.2686C15.0527 15.2686 17.8294 15.7987 20.4924 17.7767C23.0295 19.6647 23.8609 22.0181 23.8609 22.0181Z" fill="#FAA634"/>
</svg>

<svg width="75" height="43" viewBox="0 0 75 43" fill="none" xmlns="http://www.w3.org/2000/svg"><path fill-rule="evenodd" clip-rule="evenodd" d="M75 40.712C75 41.979 73.887 43 72.506 43H2.495C1.113 43 0 41.979 0 40.712V2.288C0 1.021 1.113 0 2.495 0h70.011C73.886 0 75 1.021 75 2.288v38.424z" fill="#F8F8F8"/><path fill-rule="evenodd" clip-rule="evenodd" d="M34.517 27.965h-3.664l2.298-12.916h3.664l-2.297 12.916zm-6.752-12.916l-3.481 8.883-.423-1.914-1.227-5.805s-.154-1.164-1.747-1.164h-5.764l-.07.22s1.761.336 3.833 1.474l3.185 11.222h3.82l5.82-12.916h-3.946zm28.819 12.916h3.368L57.02 15.049h-2.946c-1.367 0-1.69.97-1.69.97l-5.469 11.946h3.82l.761-1.926h4.664l.423 1.926zm-4.031-4.563l1.93-4.836 1.086 4.836h-3.016zm-5.337-5.25l.521-2.767s-1.62-.569-3.297-.569c-1.818 0-6.144.737-6.144 4.28 0 3.336 5.073 3.375 5.073 5.133 0 1.745-4.552 1.434-6.046.323l-.55 2.91s1.636.724 4.144.724c2.494 0 6.27-1.19 6.27-4.423 0-3.348-5.115-3.671-5.115-5.133 0-1.448 3.566-1.267 5.144-.478z" fill="#434C9E"/><path fill-rule="evenodd" clip-rule="evenodd" d="M23.86 22.018l-1.226-5.805s-.154-1.164-1.747-1.164h-5.764l-.07.22s2.776.53 5.44 2.508c2.537 1.888 3.368 4.241 3.368 4.241z" fill="#FAA634"/></svg>
